X: 40889
T: Tricky, The
R: reel
M: 4/4
K: Gminor
GD~D2 B2AB|GFDF ~E2FE|DGBD GBdg|fdec dBcA|
~B2dB ~A2cA|GBAF GFDF|~E2GE DGBd|cAFA GABA:|
|:~G2g^f g=fdc|dBGF GABd|cA~A2 FGAc|f=efd cAFA|
~B2dB ~A2cA|GBAF GFDF|EFGE DGBd|cAFA GABA:|

